X:825
T: Bald Bishop
S: T. Guiterrez
R: reel
L: 1/8
M: C|
K: D
A|"D"d3 A  "Bm7"BAFE| "D"F2AF "G"EDB,A,|"Em"B,E (3EDE "D"DEFA|"Bm"BFAF "D"DEFA|
"D"d3 A  "Bm7"BAFE|"D"F2AF "G"EDB,A,|"Em"B,E (3EDE "D"DEFA|"Bm7"BFAF "D"D3 :|
A|"D"d3 A  "Bm7"BAFA|"D"fAdf "Em7"edBd|"D"ADAB "Em"ABde|"D"fAdf "A"e2 fe|
"D"d3 A "Bm7"BAFA|"D"fAdf "Em7"edBd|"D"ADAB "Bm7"ABdB|"A"AFEF "D"D3 :|
